X:1
T:James Gibb editions
T:Quand'io miro le rose - Marenzio
%%score [ 1 2 { 3 | 4 } 5 ]
L:1/8
Q:1/4=132
M:2/2
K:F
V:1 treble nm="Soprano" snm="S"
V:2 treble nm="Alto" snm="A"
V:3 treble-8 nm="Tenor I" snm="T"
V:4 treble-8 
V:5 bass nm="Bass" snm="B"
V:1
"^Quand'io miro le rose""^Luca Marenzio\n(1556 -1599)""^Angelo Grillo\n(1557-1629)" B2 B2 c2 cc | %1
w: Quand' io mi- ro le|
 d4 d2 A2 | B2 B2 c2 c2 | d4 d2 f2 | f2 f2 _e2 c2 | d4 d2 f2 |[M:2/2] f2 f2 _e2 c2 | d4 d2 f2 | %8
w: ro- se ch'in|voi na- tu- ra|po- se e|quel- le che v'ha|l'ar- te nel|va- go se- no|spar- te, non|
 f2 e2 d2 d2 | c4 c4 | d2 B4 c2 | A2 d2 d3 d | c2 B2 A4 |[M:2/2] G8 | z2 d2 f2 e2 | d2 d2 c4 | %16
w: so co- no- scer|po- i|se voi le|rose o sian le|ro- se vo-|i|non so co-|no- scer po-|
[Q:1/4=130] c4[Q:1/4=128] d2[Q:1/4=126] B2- | %17
w: i se voi|
[Q:1/4=125] B2[Q:1/4=123] c2[Q:1/4=122] A2[Q:1/4=121] d2 | %18
w: * le rose o|
[Q:1/4=119] d3[Q:1/4=118] d[Q:1/4=117] c2[Q:1/4=115] B2 |[Q:1/4=112] A8 |[Q:1/4=110] =B8 |] %21
w: sian le ro- se|vo-|i.|
V:2
 G2 G2 A2 AA | B4 B2 ^F2 | G2 G2 A2 A2 | B4 B2 B2 | B2 F2 G2 A2 | B4 B2 B2 |[M:2/2] B2 F2 G2 A2 | %7
w: Quand' io mi- ro le|ro- se ch'in|voi na- tu- ra|po- se e|quel- le che v'ha|l'ar- te nel|va- go se- no|
 B4 B2 B2 | d2 c2 B2 B2 | A4 A4 | A2 G4 G2 | F2 B2 B3 B | G2 G4 ^F2 |[M:2/2] G8 | z2 B2 d2 c2 | %15
w: spar- te, non|so co- no- scer|po- i|se voi le|rose o sian le|ro- se vo-|i|non so co-|
 B2 B2 A4 | A4 A2 G2- | G2 G2 F2 B2 | B3 B G2 G2- | G2 (^FE F4) | G8 |] %21
w: no- scer po-|i se voi|* le rose o|sian le ro- se|* vo\- * *|i.|
V:3
 d2 d2 f2 ff | f4 f2 d2 | d2 d2 f2 f2 | f4 f2 f2 | f2 d2 c3 c | f4 f2 f2 | %6
w: Quand' io mi- ro le|ro- se ch'in|voi na- tu- ra|po- se e|quel- le che v'ha|l'ar- te nel|
[M:2/2][K:treble-8] d2 B2 B2 A2 | d4 d2 d2 | d2 e2 f2 f2 | f4 f4 | f2 _e4 e2 | d2 f2 f3 f | %12
w: va- go se- no|spar- te, non|so co- no- scer|po- i|se voi le|rose o sian le|
 e2 d2 d4 |[M:2/2][K:treble-8] d8 | z2 B2 B2 G2 | F3 G A4 | c4 F2 G2- | G2 c2 F2 F2 | B2 d2 G2 G2 | %19
w: ro- se vo-|i|non so co-|no- scer po-|i se voi|* le rose o|sian le ro- se|
 A8 | G8 |] %21
w: vo-|i.|
V:4
 B2 G2 c2 cc | B4 B2 A2 | G2 B2 A2 c2 | B4 B2 d2 | d2 B2 B2 A2 | d4 d2 d2 | %6
w: Quand' io mi- ro le|ro- se ch'in|voi na- tu- ra|po- se e|quel- le che v'ha|l'ar- te nel|
[M:2/2][K:treble-8] f2 d2 G2 c2 | f4 f2 B2 | B2 G2 F3 G | A4 c4 | F2 G4 c2 | F2 F2 B2 d2 | %12
w: va- go se- no|spar- te, non|so co- no- scer|po- i|se voi le|rose o sian le|
 G2 G2 A4 |[M:2/2][K:treble-8] B8 | z2 f2 d2 e2 | f2 f2 f4 | f4 f2 _e2- | e2 _e2 d2 f2 | %18
w: ro- se vo-|i|non so co-|no- scer po-|i se voi|* le rose o|
 f3 f e2 d2 | d8 | d8 |] %21
w: sian le ro- se|vo-|i.|
V:5
 G,2 G,2 F,2 F,F, | B,,4 B,,2 D,2 | G,2 G,2 F,2 F,2 | B,,4 B,,2 B,2 | B,2 B,2 _E,2 F,2 | %5
w: Quand' io mi- ro le|ro- se ch'in|voi na- tu- ra|po- se e|quel- le che v'ha|
 B,,4 B,,2 B,2 |[M:2/2] B,2 B,2 _E,2 F,2 | B,,4 B,,2 B,,2 | B,,2 C,2 D,3 E, | F,4 F,4 | %10
w: l'ar- te nel|va- go se- no|spar- te, non|so co- no- scer|po- i|
 D,2 _E,4 C,2 | D,2 B,,2 B,,3 B,, | C,2 G,,2 D,4 |[M:2/2] G,,8 | z2 B,,2 B,,2 C,2 | D,3 E, F,4 | %16
w: se voi le|rose o sian le|ro- se vo-|i|non so co-|no- scer po-|
 F,4 D,2 _E,2- | E,2 C,2 D,2 B,,2 | B,,3 B,, C,2 G,,2 | D,8 | G,,8 |] %21
w: i se voi|* le rose o|sian le ro- se|vo-|i.|

